32x32/apps/chrome-mnfehgbmkapmjnhcnbodoamcioleeooe-Default.svg

<svg height="32" width="32" xmlns="http://www.w3.org/2000/svg"><path d="m3.5 3c-.831 0-1.5.67-1.5 1.5v25c0 .831.669 1.5 1.5 1.5h16.5l10-10v-16.5c0-.83-.669-1.5-1.5-1.5z" opacity=".2"/><path d="m4 2s-2 0-2 2v24c0 2 2 2 2 2h16l10-10v-16c0-2-2-2-2-2z" fill="#ffa234"/><path d="m30 20h-8.5a1.5 1.5 0 0 0 -1.5 1.5v8.5z" fill="#ffcd82"/><path d="m4 2c-.831 0-2 1.17-2 2v1c0-.83 1.169-2 2-2h24c.831 0 2 1.17 2 2v-1c0-.831-1.169-2-2-2zm17.5 18a1.5 1.5 0 0 0 -1.5 1.5v1a1.5 1.5 0 0 1 1.5-1.5h7.5l1-1z" fill="#f4f4f7" opacity=".2"/><path d="m11 7a5 5 0 0 0 -4.58 3h4.58v4h-4.576a5 5 0 0 0 4.576 3 5 5 0 0 0 4.576-3h9.424v-4h-9.42a5 5 0 0 0 -4.58-3z" fill="#4b4b4b"/></svg>

<svg xmlns="http://www.w3.org/2000/svg" width="32" height="32"><path style="opacity:.2" d="M3.5 3C2.669 3 2 3.67 2 4.5v25c0 .831.669 1.5 1.5 1.5H20l10-10V4.5c0-.83-.669-1.5-1.5-1.5z"/><path style="fill:#ffa234" d="M4 2S2 2 2 4v24c0 2 2 2 2 2h16l10-10V4c0-2-2-2-2-2z"/><path style="fill:#ffcd82" d="M30 20h-8.5a1.5 1.5 0 0 0-1.5 1.5V30z"/><path style="opacity:.2;fill:#f4f4f7" d="M4 2C3.169 2 2 3.17 2 4v1c0-.83 1.169-2 2-2h24c.831 0 2 1.17 2 2V4c0-.831-1.169-2-2-2zM21.5 20a1.5 1.5 0 0 0-1.5 1.5v1a1.5 1.5 0 0 1 1.5-1.5H29l1-1z"/><path style="fill:#4b4b4b" d="M11 7a5 5 0 0 0-4.58 3H11v4H6.424A5 5 0 0 0 11 17a5 5 0 0 0 4.576-3H25v-4h-9.42A5 5 0 0 0 11 7z"/></svg>
